Numix-GalliumOS/16/mimetypes/application-postscript.svg

<?xml version="1.0" encoding="UTF-8" standalone="no"?>
<svg
   xmlns:dc="http://purl.org/dc/elements/1.1/"
   xmlns:cc="http://creativecommons.org/ns#"
   xmlns:rdf="http://www.w3.org/1999/02/22-rdf-syntax-ns#"
   xmlns:svg="http://www.w3.org/2000/svg"
   xmlns="http://www.w3.org/2000/svg"
   xmlns:sodipodi="http://sodipodi.sourceforge.net/DTD/sodipodi-0.dtd"
   xmlns:inkscape="http://www.inkscape.org/namespaces/inkscape"
   width="16"
   height="16"
   viewBox="0 0 16 16"
   id="svg2"
   version="1.1"
   inkscape:version="0.48.5 r10040"
   sodipodi:docname="application-postscript.svg">
  <metadata
     id="metadata22">
    <rdf:RDF>
      <cc:Work
         rdf:about="">
        <dc:format>image/svg+xml</dc:format>
        <dc:type
           rdf:resource="http://purl.org/dc/dcmitype/StillImage" />
      </cc:Work>
    </rdf:RDF>
  </metadata>
  <defs
     id="defs20" />
  <sodipodi:namedview
     pagecolor="#ffffff"
     bordercolor="#666666"
     borderopacity="1"
     objecttolerance="10"
     gridtolerance="10"
     guidetolerance="10"
     inkscape:pageopacity="0"
     inkscape:pageshadow="2"
     inkscape:window-width="1280"
     inkscape:window-height="970"
     id="namedview18"
     showgrid="true"
     inkscape:zoom="41.7193"
     inkscape:cx="9.8777215"
     inkscape:cy="8.3685768"
     inkscape:window-x="0"
     inkscape:window-y="0"
     inkscape:window-maximized="1"
     inkscape:current-layer="svg2">
    <inkscape:grid
       type="xygrid"
       id="grid3010" />
  </sodipodi:namedview>
  <path
     style="fill:#eb1b23;fill-opacity:1"
     d="M 2.667969,-4.465e-4 C 2.324219,-4.465e-4 2,0.3378115 2,0.6964462 L 2,15.303108 C 2,15.641365 2.34375,16 2.667969,16 l 10.664062,0 C 13.65625,16 14,15.641365 14,15.303108 L 14,3.9995533 10,-4.465e-4 z"
     id="path4-2"
     inkscape:connector-curvature="0"
     sodipodi:nodetypes="ssssssccs" />
  <path
     style="fill:#000000;fill-opacity:0.19599998"
     d="m 10.583223,3.3315843 0.0154,0.01953 0.04005,-0.01953 z m 0.02978,0.667969 3.387,3.664062 0,-3.664062 z"
     id="path6"
     inkscape:connector-curvature="0"
     sodipodi:nodetypes="cccccccc" />
  <path
     style="fill:#ffffff;fill-opacity:0.39200003"
     d="m 10,-4.465e-4 3.996396,3.9999998 -3.383784,0 C 10.313513,3.9995533 10,3.6824363 10,3.3833373 z"
     id="path8"
     inkscape:connector-curvature="0"
     sodipodi:nodetypes="ccssc" />
  <g
     style="fill:#ffffff"
     id="g10"
     transform="matrix(1.1403154,0,0,1.1403154,-1.1225351,-1.1223974)">
    <path
       d="m 5.785156,7.929688 c 0.257813,0.011718 0.539063,0.175781 0.75,0.316406 0.617188,0.410156 1.109375,1.089844 1.011719,1.875 C 7.640625,9.96875 7.644531,9.753906 7.644531,9.582031 7.644531,9.035156 7.351562,8.46875 6.980469,8.085938 6.855469,7.957031 6.722656,7.8125 6.5625,7.734375 L 8.398438,5.558594 8.839844,5.035156 C 8.875,4.996094 8.988281,4.902344 8.964844,4.84375 8.941406,4.785156 8.835938,4.75 8.785156,4.730469 8.730469,4.703125 8.625,4.648438 8.5625,4.671875 8.5,4.695312 8.445312,4.785156 8.402344,4.835938 L 8.066406,5.234375 6.476562,7.097656 6.003906,7.648438 C 5.929688,7.734375 5.832031,7.824219 5.785156,7.929688 z"
       id="path12"
       inkscape:connector-curvature="0" />
    <path
       d="M 4.742188,8.566406 C 5.375,7.894531 5.933594,7.144531 6.535156,6.449219 L 7.300781,5.542969 C 7.476562,5.339844 7.6875,5.136719 7.828125,4.90625 7.734375,4.878906 7.523438,4.863281 7.4375,4.910156 7.34375,4.957031 7.265625,5.082031 7.199219,5.160156 L 6.761719,5.65625 C 6.699219,5.730469 6.621094,5.851562 6.535156,5.894531 6.40625,5.960938 6.175781,5.933594 6.035156,5.9375 L 5.519531,5.980469 C 5.136719,6.007812 4.699219,6.007812 4.511719,6.417969 4.359375,6.75 4.382812,7.21875 4.367188,7.578125 c -0.035157,0.75 -0.058594,1.511719 0.011718,2.257813 0.027344,0.320312 -0.00781,0.730468 0.15625,1.019531 0.160156,0.277343 0.472656,0.339843 0.761719,0.367187 0.566406,0.05078 1.242187,0.03906 1.695313,-0.359375 C 7.535156,10.394531 7.457031,9.554688 6.964844,9.089844 6.425781,8.582031 5.441406,8.324219 4.742188,8.566406 z"
       id="path14"
       inkscape:connector-curvature="0" />
    <path
       d="m 6.644531,11.292969 c 0.101563,0.04297 0.277344,0.02734 0.390625,0.02734 l 0.707032,0.01172 c 0.898437,0 1.789062,-0.05469 2.683593,-0.09766 0.425781,-0.01953 0.90625,-0.03516 1.082031,-0.507813 0.113282,-0.300781 0.09375,-0.683593 0.113282,-1.003906 0.05078,-0.730468 0.07031,-1.484375 0,-2.214844 -0.03125,-0.34375 0.01172,-0.769531 -0.136719,-1.089843 C 11.253906,5.925781 10.5625,5.964844 10.105469,5.953125 9.992188,5.949219 9.78125,5.882812 9.679688,5.933594 9.601562,5.972656 9.554688,6.171875 9.519531,6.25 l -0.40625,0.890625 c -0.472656,1.050781 -0.917969,2.128906 -1.4375,3.164063 -0.199219,0.398437 -0.558593,0.90625 -1.03125,0.988281 z"
       id="path16"
       inkscape:connector-curvature="0" />
  </g>
</svg>

<svg xmlns="http://www.w3.org/2000/svg" viewBox="0 0 16 16">
 <path d="m 2.668 0 c -0.344 0 -0.668 0.338 -0.668 0.697 l 0 14.607 c 0 0.338 0.344 0.697 0.668 0.697 l 10.664 0 c 0.324 0 0.668 -0.359 0.668 -0.697 l 0 -11.304 -4 -4 z" style="fill:#eb1b23;fill-opacity:1"/>
 <path d="m 10.583 3.332 0.015 0.02 0.04 -0.02 z m 0.03 0.668 3.387 3.664 0 -3.664 z" style="fill:#000;fill-opacity:0.196"/>
 <path d="m 10 0 3.996 4 -3.384 0 c -0.299 0 -0.613 -0.317 -0.613 -0.616 z" style="fill:#fff;fill-opacity:0.392"/>
 <g transform="matrix(1.1403154,0,0,1.1403154,-1.1225351,-1.1223974)" style="fill:#fff">
  <path d="m 5.785 7.93 c 0.258 0.012 0.539 0.176 0.75 0.316 0.617 0.41 1.109 1.09 1.012 1.875 c 0.094 -0.152 0.098 -0.367 0.098 -0.539 0 -0.547 -0.293 -1.113 -0.664 -1.496 -0.125 -0.129 -0.258 -0.273 -0.418 -0.352 l 1.836 -2.176 0.441 -0.523 c 0.035 -0.039 0.148 -0.133 0.125 -0.191 -0.023 -0.059 -0.129 -0.094 -0.18 -0.113 -0.055 -0.027 -0.16 -0.082 -0.223 -0.059 -0.063 0.023 -0.117 0.113 -0.16 0.164 l -0.336 0.398 -1.59 1.863 -0.473 0.551 c -0.074 0.086 -0.172 0.176 -0.219 0.281 z"/>
  <path d="m 4.742 8.566 c 0.633 -0.672 1.191 -1.422 1.793 -2.117 l 0.766 -0.906 c 0.176 -0.203 0.387 -0.406 0.527 -0.637 -0.094 -0.027 -0.305 -0.043 -0.391 0.004 -0.094 0.047 -0.172 0.172 -0.238 0.25 l -0.438 0.496 c -0.063 0.074 -0.141 0.195 -0.227 0.238 -0.129 0.066 -0.359 0.039 -0.5 0.043 l -0.516 0.043 c -0.383 0.027 -0.82 0.027 -1.01 0.438 -0.152 0.332 -0.129 0.801 -0.145 1.16 c -0.035 0.75 -0.059 1.512 0.012 2.258 0.027 0.32 -0.008 0.73 0.156 1.02 0.16 0.277 0.473 0.34 0.762 0.367 0.566 0.051 1.242 0.039 1.695 -0.359 c 0.543 -0.469 0.465 -1.309 -0.027 -1.773 -0.539 -0.508 -1.523 -0.766 -2.223 -0.523 z"/>
  <path d="m 6.645 11.293 c 0.102 0.043 0.277 0.027 0.391 0.027 l 0.707 0.012 c 0.898 0 1.789 -0.055 2.684 -0.098 0.426 -0.02 0.906 -0.035 1.082 -0.508 0.113 -0.301 0.094 -0.684 0.113 -1 0.051 -0.73 0.07 -1.484 0 -2.215 -0.031 -0.344 0.012 -0.77 -0.137 -1.09 c -0.23 -0.492 -0.922 -0.453 -1.379 -0.465 -0.113 -0.004 -0.324 -0.07 -0.426 -0.02 -0.078 0.039 -0.125 0.238 -0.16 0.316 l -0.406 0.891 c -0.473 1.051 -0.918 2.129 -1.438 3.164 -0.199 0.398 -0.559 0.906 -1.031 0.988 z"/>
 </g>
</svg>
